X:125
T:O Death! Rock me asleep
M:C
L:1/8
K:C
%%score 1 2
V:1 clef-treble
V:2 clef-bass octave=-1
V:1
e2|e6e2&[Ec]8|d2c2B3B&[FA]4[D^G]4|[CA]4[EAe]4|[FAd]2[Ec]2[DB]2[CA]2|
w:O Death! O Death, rock me a-sleep! Bring me to qui-et
V:2
x2|A,8|D4E4|F4C4|D6F2|
V:1
[E^GB]6B2|B6B2&[E^G]8|B2B2[E^FB]2[^DFB]2&[EG]4x4|B6e2&[EG]8|[Ae]6A2&E4=F4|[E^Gc]2[DB]2[CA]4|
w:rest: Let pass my wea-ry, guilt-less life Out of my care-ful breast.
V:2
E6z2|E,6^F,2|G,2A,2B,4|E4D4|C4D4|E4A4|
V:1
z4z2[CA]2|[Ac]2[GB]2B3A&x4F4|G6A2&E8|c2B2A3A&F4D4|^G6BB&E8|
w:Toll on the pass-ing bell, Ring out my dole-ful knell, Let thy
V:2
"^f"F8|C4D4|E4C4|D4F4|"^p"E8|
V:1
[EAC]3[CEA][DFB]2[CEA]2|z4z2[E^GB]2|[EAc]3[CEA][DFB]2[CEA]2|z4z2[FAB]2|
w:sound my death tell. Death doth draw near me, There
V:2
A,8|"^pp"E,8|A,8|"^f"D8|
V:1
[EAc]3[CEA][DFB]2[D^GB]2|A6!>(!A2&C4F4|A6A2&E4D4|!>)!A6A2&C4D4|A6A2&[CE]4[DF]4|"_pp"A2A2A4&[^CE]8||
w:is no re-me-dy, no re-me-dy, There is no re-me-dy.
V:2
E4E,4|A,4(D4|C4B,4|A,4)(F4&A8|E4D4)|[A,EA]8||

